assets/v1/icons/blade.svg

<svg xmlns="http://www.w3.org/2000/svg" width="16" height="16" viewBox="0 0 16 16">
  <g fill="none" fill-rule="evenodd">
    <polygon fill="#9AA7B0" fill-opacity=".8" points="7 1 3 5 7 5"/>
    <polygon fill="#9AA7B0" fill-opacity=".8" points="8 1 8 6 3 6 3 8 13 8 13 1"/>
    <path fill="#F26522" d="M3.3018 14.2344C4.4918 13.9474 5.6838 13.6654 6.8748 13.3844 7.2698 13.2934 7.4538 13.1834 7.1818 12.7184 6.4548 11.4844 5.7458 10.2404 5.0298 9.0004L.9998 9.0004.9998 10.6154C1.5338 11.7174 2.0758 12.8164 2.6058 13.9214 2.7758 14.2774 2.9828 14.3104 3.3018 14.2344M8.9355 12.9063C10.9145 12.3773 12.9175 11.9403 14.9175 11.4913 15.3745 11.3883 15.3395 11.1973 15.1265 10.8963 14.6795 10.2653 14.2365 9.6293 13.7855 9.0003L5.8435 9.0003C6.5205 10.1353 7.1955 11.2713 7.8695 12.4083 8.1225 12.8363 8.3285 13.0683 8.9355 12.9063"/>
    <path fill="#F26522" d="M8.1113 14.3945C7.9253 14.0515 7.7633 13.9805 7.3823 14.0885 5.9663 14.4905 4.5333 14.8265 3.1153 15.2185 2.5013 15.3885 2.0883 15.2035 1.8333 14.6485 1.5543 14.0435 1.2783 13.4375 1.0003 12.8325L1.0003 15.9995 9.0153 15.9995C8.7153 15.4645 8.4043 14.9335 8.1113 14.3945M10.001 16L16 16 16 12.094C15.912 12.01 15.805 11.948 15.648 11.951 15.17 12.09 14.695 12.241 14.213 12.365 12.549 12.796 10.882 13.213 9.219 13.646 9.023 13.697 8.629 13.662 8.869 14.076 9.244 14.719 9.623 15.359 10.001 16M16 11.0645L16 9.0005 14.433 9.0005C14.875 9.6035 15.317 10.2095 15.757 10.8165 15.829 10.9165 15.904 11.0065 16 11.0645"/>
  </g>
</svg>

<svg xmlns="http://www.w3.org/2000/svg" width="16" height="16" viewBox="0 0 16 16"><g fill="none" fill-rule="evenodd"><path fill="#9AA7B0" fill-opacity=".8" d="M7 1 3 5h4z"/><path fill="#9AA7B0" fill-opacity=".8" d="M8 1v5H3v2h10V1z"/><path fill="#F26522" d="M3.302 14.234q1.786-.43 3.573-.85c.395-.09.579-.2.307-.666C6.455 11.484 5.746 10.24 5.03 9H1v1.615c.534 1.102 1.076 2.201 1.606 3.306.17.356.377.39.696.313m5.634-1.328c1.979-.529 3.982-.966 5.982-1.415.457-.103.422-.294.209-.595-.447-.63-.89-1.267-1.341-1.896H5.844q1.014 1.703 2.026 3.408c.253.428.458.66 1.065.498"/><path fill="#F26522" d="M8.111 14.395c-.186-.343-.348-.415-.729-.306-1.416.402-2.849.737-4.267 1.13-.614.17-1.027-.015-1.282-.57L1 12.833v3.166h8.015c-.3-.535-.61-1.065-.904-1.604M10.001 16H16v-3.906a.47.47 0 0 0-.352-.143c-.478.139-.953.29-1.435.414-1.664.431-3.331.848-4.994 1.281-.196.051-.59.016-.35.43q.564.963 1.132 1.924M16 11.065V9h-1.567q.664.905 1.324 1.816c.072.1.147.19.243.248"/></g></svg>
